src/pos-icons/electron-framework.svg

<svg height="24" viewBox="0 0 24 24" width="24" xmlns="http://www.w3.org/2000/svg"><path d="m12 22c-1.67 0-3.16-1.5-4.1-4.07-.07-.2.03-.43.24-.49.2-.08.42.03.49.23.81 2.23 2.07 3.56 3.37 3.56.94 0 1.87-.68 2.62-1.92.11-.18.34-.24.53-.13.18.11.24.35.13.53-.9 1.48-2.06 2.29-3.28 2.29m3.91-4.28c-.04 0-.08-.01-.11-.02-.21-.07-.3-.28-.26-.49.46-1.4.68-3.03.68-4.71 0-3.85-1.25-7.26-3.03-8.36-.25.36-.69.64-1.19.64-.76 0-1.39-.62-1.39-1.39s.63-1.39 1.39-1.39c.77 0 1.4.61 1.41 1.37 2.12 1.13 3.59 4.84 3.59 9.13 0 1.75-.25 3.46-.72 4.95-.05.16-.2.27-.37.27m-3.91-14.95c-.34 0-.62.28-.62.62s.29.61.62.61c.35 0 .64-.27.64-.61s-.29-.62-.64-.62m-7.92 15.77c-.77 0-1.4-.63-1.4-1.39 0-.49.26-.93.65-1.18-.14-2.41 2.35-5.56 6.17-7.75 1.59-.9 3.25-1.55 4.82-1.88.18-.05.41.08.45.29.05.21-.08.42-.27.46-1.5.32-3.09.94-4.6 1.8-3.44 1.97-5.8 4.79-5.8 6.87.76.01 1.4.63 1.4 1.39 0 .77-.65 1.39-1.42 1.39m0-2.01c-.34 0-.62.28-.62.62 0 .35.28.62.62.62s.63-.27.63-.62c0-.34-.29-.62-.63-.62m14.42-3.09c-.07 0-.16-.03-.23-.09-.16-.14-.18-.38-.04-.55 1.54-1.8 2.07-3.54 1.41-4.66-.47-.81-1.54-1.26-3.01-1.28-.22 0-.39-.18-.38-.39 0-.21.18-.37.39-.38 1.75.02 3.06.61 3.67 1.66.84 1.44.29 3.46-1.49 5.55-.08.09-.19.14-.32.14m-2 5.46c-2 0-4.56-.74-7-2.13-1.55-.89-2.93-1.98-4-3.14-.15-.16-.14-.4 0-.55.18-.14.42-.13.57.03 1.01 1.1 2.33 2.14 3.82 2.99 3.31 1.9 6.88 2.53 8.76 1.62-.08-.17-.15-.37-.15-.57 0-.77.65-1.39 1.42-1.39s1.4.62 1.4 1.39-.63 1.39-1.4 1.39c-.28 0-.53-.08-.75-.22-.7.39-1.61.58-2.67.58m3-1.27c.13.08.27.14.42.14.35 0 .63-.27.63-.62 0-.34-.28-.62-.63-.62s-.62.28-.62.62c0 .14.05.27.13.38.04.02.07.06.07.1m-15.04-5.63c-.13 0-.26-.08-.33-.2-.9-1.55-1.05-2.99-.43-4.06.84-1.44 2.88-1.98 5.61-1.49.19.04.35.25.31.45-.03.21-.23.35-.44.3-2.36-.41-4.18 0-4.81 1.13-.48.82-.33 1.98.43 3.28.1.19.04.42-.15.53-.06.03-.12.06-.19.06m7.75 1.4c-.5.1-1-.21-1.1-.71-.11-.49.21-.98.7-1.09.5-.1 1 .21 1.1.71.09.49-.21.98-.7 1.09z"/></svg>

<?xml version="1.0" encoding="UTF-8"?><!DOCTYPE svg PUBLIC "-//W3C//DTD SVG 1.1//EN" "http://www.w3.org/Graphics/SVG/1.1/DTD/svg11.dtd"><svg xmlns="http://www.w3.org/2000/svg" xmlns:xlink="http://www.w3.org/1999/xlink" version="1.1" id="mdi-electron-framework" width="24" height="24" viewBox="0 0 24 24"><path d="M12 22C10.33 22 8.84 20.5 7.9 17.93C7.83 17.73 7.93 17.5 8.14 17.44C8.34 17.36 8.56 17.47 8.63 17.67C9.44 19.9 10.7 21.23 12 21.23C12.94 21.23 13.87 20.55 14.62 19.31C14.73 19.13 14.96 19.07 15.15 19.18C15.33 19.29 15.39 19.53 15.28 19.71C14.38 21.19 13.22 22 12 22M15.91 17.72C15.87 17.72 15.83 17.71 15.8 17.7C15.59 17.63 15.5 17.42 15.54 17.21C16 15.81 16.22 14.18 16.22 12.5C16.22 8.65 14.97 5.24 13.19 4.14C12.94 4.5 12.5 4.78 12 4.78C11.24 4.78 10.61 4.16 10.61 3.39C10.61 2.62 11.24 2 12 2C12.77 2 13.4 2.61 13.41 3.37C15.53 4.5 17 8.21 17 12.5C17 14.25 16.75 15.96 16.28 17.45C16.23 17.61 16.08 17.72 15.91 17.72M12 2.77C11.66 2.77 11.38 3.05 11.38 3.39C11.38 3.73 11.67 4 12 4C12.35 4 12.64 3.73 12.64 3.39C12.64 3.05 12.35 2.77 12 2.77M4.08 18.54C3.31 18.54 2.68 17.91 2.68 17.15C2.68 16.66 2.94 16.22 3.33 15.97C3.19 13.56 5.68 10.41 9.5 8.22C11.09 7.32 12.75 6.67 14.32 6.34C14.5 6.29 14.73 6.42 14.77 6.63C14.82 6.84 14.69 7.05 14.5 7.09C13 7.41 11.41 8.03 9.9 8.89C6.46 10.86 4.1 13.68 4.1 15.76C4.86 15.77 5.5 16.39 5.5 17.15C5.5 17.92 4.85 18.54 4.08 18.54M4.08 16.53C3.74 16.53 3.46 16.81 3.46 17.15C3.46 17.5 3.74 17.77 4.08 17.77S4.71 17.5 4.71 17.15C4.71 16.81 4.42 16.53 4.08 16.53M18.5 13.44C18.43 13.44 18.34 13.41 18.27 13.35C18.11 13.21 18.09 12.97 18.23 12.8C19.77 11 20.3 9.26 19.64 8.14C19.17 7.33 18.1 6.88 16.63 6.86C16.41 6.86 16.24 6.68 16.25 6.47C16.25 6.26 16.43 6.1 16.64 6.09C18.39 6.11 19.7 6.7 20.31 7.75C21.15 9.19 20.6 11.21 18.82 13.3C18.74 13.39 18.63 13.44 18.5 13.44M16.5 18.9C14.5 18.9 11.94 18.16 9.5 16.77C7.95 15.88 6.57 14.79 5.5 13.63C5.35 13.47 5.36 13.23 5.5 13.08C5.68 12.94 5.92 12.95 6.07 13.11C7.08 14.21 8.4 15.25 9.89 16.1C13.2 18 16.77 18.63 18.65 17.72C18.57 17.55 18.5 17.35 18.5 17.15C18.5 16.38 19.15 15.76 19.92 15.76C20.69 15.76 21.32 16.38 21.32 17.15C21.32 17.92 20.69 18.54 19.92 18.54C19.64 18.54 19.39 18.46 19.17 18.32C18.47 18.71 17.56 18.9 16.5 18.9M19.5 17.63C19.63 17.71 19.77 17.77 19.92 17.77C20.27 17.77 20.55 17.5 20.55 17.15C20.55 16.81 20.27 16.53 19.92 16.53S19.3 16.81 19.3 17.15C19.3 17.29 19.35 17.42 19.43 17.53C19.47 17.55 19.5 17.59 19.5 17.63M4.46 12C4.33 12 4.2 11.92 4.13 11.8C3.23 10.25 3.08 8.81 3.7 7.74C4.54 6.3 6.58 5.76 9.31 6.25C9.5 6.29 9.66 6.5 9.62 6.7C9.59 6.91 9.39 7.05 9.18 7C6.82 6.59 5 7 4.37 8.13C3.89 8.95 4.04 10.11 4.8 11.41C4.9 11.6 4.84 11.83 4.65 11.94C4.59 11.97 4.53 12 4.46 12M12.21 13.4C11.71 13.5 11.21 13.19 11.11 12.69C11 12.2 11.32 11.71 11.81 11.6C12.31 11.5 12.81 11.81 12.91 12.31C13 12.8 12.7 13.29 12.21 13.4Z" /></svg>
